!!!COM: Chopin, Frederic
!!!CDT: 1810///-1849///
!!!OTL: Prelude in G Major, Op. 28, No. 3
!!!OPS: Op. 28
!!!ONM: No. 3
!!!OMD: Vivace
!!!ODT: 1836///-1839///
!!!PDT: 1839///
!!!ENC: Craig Stuart Sapp
!!!AIN: piano
!!!ENC: 4 March 2001
!!!EEV: 2 August 2011
!!!YEC: Copyright 2001 by Craig Stuart Sapp
!!!YEN: United States of America
**kern	**kern
*Ipiano	*Ipiano
*lh	*rh
*clefF4	*clefG2
*k[f#]	*k[f#]
*G:	*G:
*met(C|)	*met(C|)
*M2/2	*M2/2
*MM144	*MM144
16GG	1r
16D	.
16G	.
16A	.
16B	.
16A	.
16G	.
16e	.
16d	.
16c	.
16B	.
16A	.
16G	.
16A	.
16B	.
16D	.
=2	=2
16GG	1r
16D	.
16G	.
16A	.
16B	.
16A	.
16G	.
16e	.
16d	.
16c	.
16B	.
16A	.
16G	.
16A	.
16B	.
16D	.
=3	=3
16GG	4.d
16D	.
16G	.
16A	.
16B	.
16A	.
16G	8r
16e	.
16d	4.g 4.b
16c	.
16B	.
16A	.
16G	.
16A	.
16B	16r
16D	16cc 16ee
=4	=4
16GG	2.b 2.dd
16D	.
16G	.
16A	.
16B	.
16A	.
16G	.
16e	.
16d	.
16c	.
16B	.
16A	.
16G	8r
16A	.
16B	16r
16D	16ee 16ccc
=5	=5
16GG	1dd 1bb
16D	.
16G	.
16A	.
16B	.
16A	.
16G	.
16e	.
16d	.
16c	.
16B	.
16A	.
16G	.
16A	.
16B	.
16D	.
=6	=6
16GG	2b 2gg
16D	.
16G	.
16A	.
16B	.
16A	.
16G	.
16e	.
16d	2r
16c	.
16B	.
16A	.
16G	.
16A	.
16B	.
16D	.
=7	=7
*	*^
16AA	1g 1a 1cc#	2...ff#
16E	.	.
16A	.	.
16B	.	.
16c#	.	.
16B	.	.
16A	.	.
16f#	.	.
16e	.	.
16d	.	.
16c#	.	.
16B	.	.
16A	.	.
16B	.	.
16c#	.	.
16E	.	16ee
=8	=8	=8
16DD	4f#: 4dd:	2aa:
16AA	.	.
16D	.	.
16E	.	.
16F#	4r	.
16E	.	.
16D	.	.
16B	.	.
16A	2r	2ryy
16G	.	.
16F#	.	.
16E	.	.
16D	.	.
16E	.	.
16F#	.	.
16BB	.	.
=9	=9	=9
16AA	1g 1a 1cc#	2...ff#
16E	.	.
16A	.	.
16B	.	.
16c#	.	.
16B	.	.
16A	.	.
16f#	.	.
16e	.	.
16d	.	.
16c#	.	.
16B	.	.
16A	.	.
16B	.	.
16c#	.	.
16E	.	16ee
=10	=10	=10
16DD	4f#: 4ccn:	2aa:
16AA	.	.
16D	.	.
16E	.	.
16F#	4r	.
16E	.	.
16D	.	.
16B	.	.
*	*v	*v
16A	2r
16G	.
16F#	.
16E	.
16D	.
16E	.
16F#	.
16AA	.
=11	=11
16DD	4r
16AA	.
16D	.
16E	.
16F#	8r
16E	.
16D	16r
16B	16aa 16ccc
16A	4.cc 4.ee
16G	.
16F#	.
16E	.
16D	.
16E	.
16F#	16r
16AA	16cc 16dd
=12	=12
16GG	4.d
16D	.
16G	.
16A	.
16B	.
16A	.
16G	8r
16e	.
16d	4.g 4.b
16c	.
16B	.
16A	.
16G	.
16A	.
16B	16r
16D	16cc 16ee
=13	=13
16GG	2.b 2.dd
16D	.
16G	.
16A	.
16B	.
16A	.
16G	.
16e	.
16d	.
16c	.
16B	.
16A	.
16G	8r
16A	.
16B	16r
16D	16ee 16ccc
=14	=14
16GG	1dd 1bb
16D	.
16G	.
16A	.
16B	.
16A	.
16G	.
16e	.
16d	.
16c	.
16B	.
16A	.
16G	.
16A	.
16B	.
16D	.
=15	=15
16GG	2b 2gg
16D	.
16G	.
16A	.
16B	.
16A	.
16G	.
16e	.
16d	2r
16c	.
16B	.
16A	.
16G	.
16A	.
16B	.
16D	.
=16	=16
*	*^
16GG	1b	2ffn
16D	.	.
16G	.	.
16A	.	.
16B	.	.
16A	.	.
16G	.	.
16e	.	.
16d	.	4..ff
16c	.	.
16B	.	.
16A	.	.
16G	.	.
16A	.	.
16B	.	.
16D	.	16ff
=17	=17	=17
16GG	1b	4..ffn
16D	.	.
16G	.	.
16A	.	.
16B	.	.
16A	.	.
16G	.	.
.	.	16ffq
.	.	16ggq
16e	.	16ff
16d	.	4..ee
16c	.	.
16B	.	.
16A	.	.
16G	.	.
16A	.	.
16B	.	.
16GG	.	16dd#
=18	=18	=18
16CC	[1e: [1g:	[1cc: [1ee:
16GG	.	.
16C	.	.
16D	.	.
16E	.	.
16D	.	.
16C	.	.
16A	.	.
16G	.	.
16Fn	.	.
16E	.	.
16D	.	.
16C	.	.
16D	.	.
16E	.	.
16GG	.	.
=19	=19	=19
16CC	1e] 1g]	1cc] 1ee]
16GG	.	.
16C	.	.
16D	.	.
16E	.	.
16D	.	.
16C	.	.
16A	.	.
16G	.	.
16Fn	.	.
16E	.	.
16D	.	.
16C	.	.
16D	.	.
16E	.	.
16GG	.	.
=20	=20	=20
16CC	1e 1g	2cc
16GG	.	.
16C	.	.
16D	.	.
16E	.	.
16D	.	.
16C	.	.
16A	.	.
16G	.	4..cc
16Fn	.	.
16E	.	.
16D	.	.
16C	.	.
16D	.	.
16E	.	.
16GG	.	16cc
=21	=21	=21
16CC	1e 1g	2...cc
16GG	.	.
16C	.	.
16D	.	.
16E	.	.
16D	.	.
16C	.	.
16A	.	.
16G	.	.
16Fn	.	.
16E	.	.
16D	.	.
16C	.	.
16D	.	.
16E	.	.
16GG	.	16b
=22	=22	=22
16CC	[1e [1g	1b
16GG	.	.
16C	.	.
16D	.	.
16E	.	.
16D	.	.
16C	.	.
16A	.	.
16G	.	.
16Fn	.	.
16E	.	.
16D	.	.
16C	.	.
16D	.	.
16E	.	.
16GG	.	.
=23	=23	=23
16CC	1e] 1g]	2...a
16GG	.	.
16C	.	.
16D	.	.
16E	.	.
16D	.	.
16C	.	.
16A	.	.
16G	.	.
16Fn	.	.
16E	.	.
16D	.	.
16C	.	.
16D	.	.
16E	.	.
16GG	.	16b
=24	=24	=24
16DD	4A:	1d: 1g:
16AA	.	.
16D	.	.
16E	.	.
16F#	4r	.
16E	.	.
16D	.	.
16B	.	.
16A	2r	.
16G	.	.
16F#	.	.
16E	.	.
16D	.	.
16E	.	.
16F#	.	.
16AA	.	.
=25	=25	=25
16DD	1c 1d	2...f#
16AA	.	.
16D	.	.
16E	.	.
16F#	.	.
16E	.	.
16D	.	.
16B	.	.
16A	.	.
16G	.	.
16F#	.	.
16E	.	.
16D	.	.
16E	.	.
16F#	.	.
16AA	.	16g
=26	=26	=26
16GG	1B 1d	1g
16D	.	.
16G	.	.
16A	.	.
16B	.	.
16A	.	.
16G	.	.
16e	.	.
16d	.	.
16c	.	.
16B	.	.
16A	.	.
16G	.	.
16A	.	.
16B	.	.
16D	.	.
*	*v	*v
=27	=27
16GG	1r
16D	.
16G	.
16A	.
16B	.
16A	.
16G	.
16e	.
16d	.
16c	.
16B	.
16A	.
16G	.
16A	.
16B	.
16D	.
=28	=28
16GG	16B
16D	16d
16G	16g
16A	16a
16B	16b
16A	16a
16G	16g
16e	16ee
16d	16dd
16c	16cc
16B	16b
16A	16a
16G	16g
16A	16a
16B	16b
16D	16d
=29	=29
16GG	16B
16D	16d
16G	16g
16A	16a
16B	16b
16A	16a
16G	16g
16e	16ee
16d	16dd
16c	16cc
16B	16b
16A	16a
16G	16g
16A	16a
16B	16b
16D	16d
=30	=30
16GG	16B
16D	16d
16G	16g
16A	16a
16B	16g
16A	16a
16G	16b
16e	16d
16GG	16B
16D	16d
16G	16g
16A	16a
16G	16g
16A	16a
16B	16b
16D	16d
=31	=31
16GG	16B
16D	16d
16G	16g
16A	16a
16G	16g
16A	16a
16B	16b
16d	16dd
*clefG2	*
16g	16gg
16a	16aa
16b	16bb
16dd	16ddd
16gg	16ggg
16aa	16aaa
16bb	16bbb
16ddd	16dddd
=32	=32
4bb	4bbb
4r	4r
*clefF4	*
2GG: 2D: 2G:	2B: 2d: 2g: 2b:
=33	=33
1GG: 1D: 1G:	1B: 1d: 1g: 1b:
==	==
*-	*-
